Sources/FrostedUI/Resources/Icons.xcassets/typography12.imageset/typography-12.svg

<svg width="12" height="12" viewBox="0 0 12 12" fill="none" xmlns="http://www.w3.org/2000/svg" data-fui-icon="true">
  <path
    d="M10 1.25C10.4142 1.25 10.75 1.58579 10.75 2V3.28027C10.7499 3.69436 10.4141 4.03027 10 4.03027C9.58588 4.03027 9.25015 3.69436 9.25 3.28027V2.75H6.75V9.25H7.53809C7.9523 9.25 8.28809 9.58579 8.28809 10C8.28809 10.4142 7.9523 10.75 7.53809 10.75H4.1543C3.74008 10.75 3.4043 10.4142 3.4043 10C3.4043 9.58579 3.74008 9.25 4.1543 9.25H5.25V2.75H2.75V3.28027C2.74985 3.69436 2.41412 4.03027 2 4.03027C1.58588 4.03027 1.25015 3.69436 1.25 3.28027V2C1.25 1.58579 1.58579 1.25 2 1.25H10Z"
    fill="currentColor"
  />
</svg>

<svg xmlns="http://www.w3.org/2000/svg" width="12" height="12" fill="none" data-fui-icon="true" viewBox="0 0 12 12"><path fill="currentColor" d="M10 1.25a.75.75 0 0 1 .75.75v1.28a.75.75 0 0 1-1.5 0v-.53h-2.5v6.5h.788a.75.75 0 0 1 0 1.5H4.154a.75.75 0 0 1 0-1.5H5.25v-6.5h-2.5v.53a.75.75 0 0 1-1.5 0V2A.75.75 0 0 1 2 1.25z"/></svg>
